X:1
T:Psalm 142
T:V 1
L:1/4
M:14/4
I:linebreak $
K:C
V:1 treble nm="Pipe Organ" snm="Org."
V:1
 A2 B2 G c B A2 ^G A3 z |$ E2 A G A2 c2 c B c3 z |$[M:16/4] c2 d2 e2 A B c2 A2 G3 z |$ %3
w: Ek roep tot God met groot ge- luid;|ek stort my klag soos wa- ter uit;|ek klaag my no- de in Gods oor,|
[M:14/4] G2 A c G2 A2 G F E4 |] %4
w: want Hy sal my ge- bed ver- hoor.|

